dist/img/adobe-photoshop-svgrepo-com.svg

<?xml version="1.0" encoding="utf-8"?><!-- Uploaded to: SVG Repo, www.svgrepo.com, Generator: SVG Repo Mixer Tools -->
<svg width="800px" height="800px" viewBox="0 0 32 32" fill="none" xmlns="http://www.w3.org/2000/svg">
<path d="M2 12.1333C2 8.58633 2 6.81283 2.69029 5.45806C3.29749 4.26637 4.26637 3.29749 5.45806 2.69029C6.81283 2 8.58633 2 12.1333 2H19.8667C23.4137 2 25.1872 2 26.5419 2.69029C27.7336 3.29749 28.7025 4.26637 29.3097 5.45806C30 6.81283 30 8.58633 30 12.1333V19.8667C30 23.4137 30 25.1872 29.3097 26.5419C28.7025 27.7336 27.7336 28.7025 26.5419 29.3097C25.1872 30 23.4137 30 19.8667 30H12.1333C8.58633 30 6.81283 30 5.45806 29.3097C4.26637 28.7025 3.29749 27.7336 2.69029 26.5419C2 25.1872 2 23.4137 2 19.8667V12.1333Z" fill="#001E36"/>
<path d="M8 22.5162V10.2034C8 10.1197 8.035 10.0718 8.11667 10.0718C9.3223 10.0718 10.5274 10 11.7333 10C13.6902 10 15.809 10.6691 16.5517 12.7162C16.7267 13.2188 16.82 13.7333 16.82 14.2718C16.82 15.3009 16.5867 16.1504 16.12 16.8205C14.8164 18.6923 12.557 18.6632 10.5317 18.6632V22.5043C10.5475 22.618 10.4506 22.6718 10.3567 22.6718H8.14C8.04667 22.6718 8 22.6239 8 22.5162ZM10.5433 12.3812V16.4017C11.3464 16.4605 12.1867 16.4669 12.9583 16.2103C13.8102 15.9645 14.2767 15.2272 14.2767 14.3436C14.3003 13.5907 13.8901 12.8683 13.1917 12.5966C12.4294 12.2796 11.3662 12.2606 10.5433 12.3812Z" fill="#31A8FF"/>
<path d="M24.0967 15.6074C23.7437 15.4213 23.3677 15.2852 22.979 15.2028C22.4796 15.0853 20.5098 14.6737 20.509 15.7037C20.5265 16.2787 21.4393 16.5604 21.8426 16.7247C23.2585 17.2108 24.8607 18.0797 24.8292 19.8264C24.8725 22.0008 22.7657 22.8701 20.9598 22.8703C20.0197 22.88 19.0403 22.7344 18.1799 22.3308C18.0977 22.2873 18.0449 22.1944 18.0484 22.0996V20.019C18.0391 19.9356 18.1287 19.8627 18.1987 19.9227C19.0417 20.4325 20.0409 20.6801 21.0162 20.6933C21.4467 20.6933 22.2999 20.6516 22.2935 20.019C22.2935 19.412 21.2728 19.1329 20.8659 18.9787C20.2761 18.7682 19.7169 18.4765 19.2036 18.1118C18.4862 17.6001 18.0362 16.7797 18.0484 15.8771C18.0442 13.8297 19.9835 12.9107 21.73 12.9103C22.5464 12.9035 23.4232 12.964 24.1832 13.2956C24.2925 13.3277 24.3151 13.4429 24.3147 13.546V15.4918C24.3216 15.6126 24.1875 15.6537 24.0967 15.6074Z" fill="#31A8FF"/>
</svg>

<svg xmlns="http://www.w3.org/2000/svg" width="800" height="800" fill="none" viewBox="0 0 32 32"><path fill="#001E36" d="M2 12.133c0-3.547 0-5.32.69-6.675A6.33 6.33 0 0 1 5.458 2.69C6.813 2 8.586 2 12.133 2h7.734c3.547 0 5.32 0 6.675.69a6.33 6.33 0 0 1 2.768 2.768c.69 1.355.69 3.128.69 6.675v7.734c0 3.547 0 5.32-.69 6.675a6.33 6.33 0 0 1-2.768 2.768c-1.355.69-3.128.69-6.675.69h-7.734c-3.547 0-5.32 0-6.675-.69a6.33 6.33 0 0 1-2.768-2.768C2 25.187 2 23.414 2 19.867z"/><path fill="#31A8FF" d="M8 22.516V10.203c0-.083.035-.131.117-.131 1.205 0 2.41-.072 3.616-.072 1.957 0 4.076.67 4.819 2.716.175.503.268 1.017.268 1.556q0 1.543-.7 2.548c-1.304 1.872-3.563 1.843-5.588 1.843v3.841c.015.114-.081.168-.175.168H8.14c-.093 0-.14-.048-.14-.156m2.543-10.135v4.02c.803.06 1.644.066 2.415-.19.852-.246 1.319-.984 1.319-1.867.023-.753-.387-1.476-1.085-1.747-.763-.317-1.826-.336-2.649-.216M24.097 15.607a4.3 4.3 0 0 0-1.118-.404c-.5-.118-2.47-.53-2.47.5.017.576.93.857 1.334 1.022 1.416.486 3.018 1.355 2.986 3.101.043 2.175-2.063 3.044-3.87 3.044-.94.01-1.919-.136-2.78-.54a.26.26 0 0 1-.13-.23v-2.081c-.01-.083.08-.156.15-.096.843.51 1.842.757 2.817.77.43 0 1.284-.041 1.278-.674 0-.607-1.021-.886-1.428-1.04a6.8 6.8 0 0 1-1.662-.867 2.7 2.7 0 0 1-1.156-2.235c-.004-2.047 1.936-2.966 3.682-2.967.816-.007 1.693.054 2.453.386.11.032.132.147.132.25v1.946c.007.12-.128.162-.218.115"/></svg>
